neru-dark-classic/22x22/devices/network-server.svg

<?xml version="1.0" encoding="UTF-8" standalone="no"?>
<svg
   xmlns:dc="http://purl.org/dc/elements/1.1/"
   xmlns:cc="http://creativecommons.org/ns#"
   xmlns:rdf="http://www.w3.org/1999/02/22-rdf-syntax-ns#"
   xmlns:svg="http://www.w3.org/2000/svg"
   xmlns="http://www.w3.org/2000/svg"
   xmlns:sodipodi="http://sodipodi.sourceforge.net/DTD/sodipodi-0.dtd"
   xmlns:inkscape="http://www.inkscape.org/namespaces/inkscape"
   width="22"
   height="22"
   version="1.1"
   viewBox="0 0 16 16"
   id="svg7"
   sodipodi:docname="network-server.svg"
   inkscape:version="0.92.1 r">
  <metadata
     id="metadata11">
    <rdf:RDF>
      <cc:Work
         rdf:about="">
        <dc:format>image/svg+xml</dc:format>
        <dc:type
           rdf:resource="http://purl.org/dc/dcmitype/StillImage" />
      </cc:Work>
    </rdf:RDF>
  </metadata>
  <sodipodi:namedview
     pagecolor="#ffffff"
     bordercolor="#666666"
     borderopacity="1"
     objecttolerance="10"
     gridtolerance="10"
     guidetolerance="10"
     inkscape:pageopacity="0"
     inkscape:pageshadow="2"
     inkscape:window-width="769"
     inkscape:window-height="480"
     id="namedview9"
     showgrid="false"
     inkscape:zoom="7.5853273"
     inkscape:cx="12.119781"
     inkscape:cy="10.691095"
     inkscape:window-x="0"
     inkscape:window-y="0"
     inkscape:window-maximized="0"
     inkscape:current-layer="svg7" />
  <defs
     id="defs3">
    <style
       id="current-color-scheme"
       type="text/css">
   .ColorScheme-Text { color:#d3dae3; } .ColorScheme-Highlight { color:#5294e2; }
  </style>
  </defs>
  <path
     style="color:#d3dae3;fill:currentColor;stroke-width:0.83116883"
     class="ColorScheme-Text"
     d="m 3.0129868,1.3506493 c -0.4604675,0 -0.8311688,0.3707013 -0.8311688,0.8311688 V 4.6753246 H 13.818182 V 2.1818181 c 0,-0.4604675 -0.370702,-0.8311688 -0.831169,-0.8311688 z m 4.987013,0.8311688 H 8.8311686 V 3.8441558 H 7.9999998 Z m 1.6623377,0 H 10.493506 V 3.8441558 H 9.6623375 Z m 1.6623375,0 h 0.831169 V 3.8441558 H 11.324675 Z M 2.181818,5.5064935 V 8.8311686 H 13.818182 V 5.5064935 Z M 7.9999998,6.3376623 H 8.8311686 V 8 H 7.9999998 Z m 1.6623377,0 H 10.493506 V 8 H 9.6623375 Z m 1.6623375,0 h 0.831169 V 8 H 11.324675 Z M 2.181818,9.6623377 v 2.4935073 c 0,0.460467 0.3707013,0.831168 0.8311688,0.831168 H 7.168831 v 1.662338 h 1.6623376 v -1.662338 h 4.1558444 c 0.460467,0 0.831169,-0.370701 0.831169,-0.831168 V 9.6623376 Z m 5.8181818,0.8311693 h 0.8311688 v 1.662338 H 7.9999998 Z m 1.6623377,0 h 0.8311685 v 1.662338 H 9.6623375 Z m 1.6623375,0 h 0.831169 v 1.662338 h -0.831169 z"
     id="path5"
     inkscape:connector-curvature="0" />
</svg>

<svg xmlns="http://www.w3.org/2000/svg" width="22" height="22" version="1.1" viewBox="0 0 16 16" id="svg7"><defs id="defs3"><style id="current-color-scheme" type="text/css"></style></defs><path d="M3.013 1.35a.83.83 0 0 0-.831.832v2.493h11.636V2.182a.83.83 0 0 0-.831-.831zM8 2.183h.831v1.662H8zm1.662 0h.832v1.662h-.832zm1.663 0h.83v1.662h-.83zM2.182 5.506v3.325h11.636V5.506zM8 6.338h.831V8H8zm1.662 0h.832V8h-.832zm1.663 0h.83V8h-.83zM2.182 9.662v2.494c0 .46.37.831.831.831h4.156v1.662H8.83v-1.662h4.156a.83.83 0 0 0 .831-.831V9.662zM8 10.494h.831v1.662H8zm1.662 0h.832v1.662h-.832zm1.663 0h.83v1.662h-.83z" id="path5" color="#d3dae3" fill="currentColor" stroke-width=".831"/></svg>
